lib/preview/nrk-logo-preview-nrk-tegnspraak-symbol-on-light.svg

<svg width="56" height="24" viewBox="0 0 56 24" fill="none" xmlns="http://www.w3.org/2000/svg">
<path d="M-3.05176e-05 18.0058V6.00686H3.93716V18.0058H-3.05176e-05ZM9.29378 7.91655L11.558 18.0058H7.24914L4.54546 6.00686H6.96215C7.51632 5.99967 8.05403 6.19502 8.47447 6.55616C8.89559 6.90215 9.18492 7.38247 9.29378 7.91655ZM12.1495 18.0058V6.00686H16.0867V18.0058H12.1495ZM19.0604 10.5699C18.6362 10.574 18.2187 10.463 17.8525 10.2487C17.4912 10.0399 17.1911 9.73973 16.9822 9.37837C16.7677 9.0121 16.6567 8.59453 16.6609 8.17009C16.6561 7.74823 16.7672 7.33315 16.9822 6.9702C17.1933 6.61276 17.4931 6.31586 17.8525 6.10829C18.2188 5.89427 18.6362 5.78328 19.0604 5.78715C19.4822 5.78261 19.8971 5.8937 20.2602 6.10829C20.616 6.31768 20.9126 6.61433 21.122 6.9702C21.3368 7.33325 21.4479 7.74826 21.4433 8.17009C21.4472 8.5945 21.3362 9.012 21.122 9.37837C20.9148 9.73814 20.6179 10.038 20.2602 10.2487C19.8971 10.4637 19.4819 10.5749 19.0599 10.5699H19.0604ZM22.0516 18.0058V6.00686H25.9891V18.0058H22.0516ZM30.9737 12.564C30.9848 12.5756 31.0692 12.7137 31.2271 12.978C31.385 13.2424 31.5906 13.5805 31.8439 13.9921C32.0974 14.4035 32.3649 14.84 32.6463 15.3018C32.9277 15.7635 33.1926 16.2001 33.4408 16.6115C33.6881 17.023 33.9697 17.4877 34.2857 18.0058H29.9598C29.6893 17.5664 29.4441 17.1692 29.2244 16.8143C29.0048 16.4594 28.7713 16.0764 28.5238 15.6651C28.2758 15.2543 28.0306 14.8543 27.7882 14.4652C27.5458 14.0762 27.3375 13.7354 27.1632 13.4428C26.9882 13.1501 26.867 12.9529 26.7996 12.8513C26.6325 12.5992 26.5336 12.3081 26.5126 12.0063C26.5294 11.7167 26.6226 11.4367 26.7827 11.1949C26.8503 11.0822 26.9743 10.8822 27.1545 10.5949C27.3347 10.3076 27.546 9.96682 27.7882 9.57249C28.0304 9.17816 28.2756 8.77537 28.5238 8.36414C28.772 7.95291 29.0055 7.567 29.2244 7.20647C29.4445 6.84632 29.6896 6.44635 29.9598 6.00658H34.2857L30.9396 11.4653C30.8361 11.6273 30.7777 11.8141 30.7706 12.0063C30.7817 12.2081 30.8522 12.4021 30.9731 12.564H30.9737Z" fill="#0A2343"/>
<ellipse cx="46.1429" cy="12.0058" rx="8.85714" ry="8.85714" fill="white"/>
<path fill-rule="evenodd" clip-rule="evenodd" d="M52.6078 18.4707C54.3225 16.7561 55.2857 14.4306 55.2857 12.0058C55.2857 9.58094 54.3225 7.25542 52.6078 5.5408C50.8932 3.82618 48.5677 2.86292 46.1429 2.86292C43.718 2.86292 41.3925 3.82618 39.6779 5.5408C37.9633 7.25542 37 9.58094 37 12.0058C37 14.4306 37.9633 16.7561 39.6779 18.4707C41.3925 20.1854 43.718 21.1486 46.1429 21.1486C48.5677 21.1486 50.8932 20.1854 52.6078 18.4707ZM49.5111 7.97215L46.58 9.55929L46.5811 9.55729C46.54 9.57972 46.5094 9.6175 46.4959 9.66239C46.4825 9.70729 46.4873 9.75567 46.5094 9.79701L46.5208 9.81787C46.5432 9.85907 46.581 9.88973 46.6259 9.90311C46.6709 9.9165 46.7193 9.91154 46.7605 9.88929L48.8445 8.763C48.9433 8.70626 49.0604 8.69086 49.1705 8.72013C49.2805 8.74941 49.3745 8.82099 49.432 8.91929C49.4828 9.0212 49.4912 9.13907 49.4555 9.24719C49.4197 9.3553 49.3427 9.4449 49.2411 9.49644L47.1788 10.6116C47.1323 10.6347 47.0969 10.6753 47.0802 10.7245C47.0635 10.7737 47.0669 10.8275 47.0897 10.8741C47.1163 10.9188 47.1595 10.9512 47.2098 10.9642C47.2602 10.9772 47.3136 10.9698 47.3585 10.9436L47.9234 10.6379L47.9748 10.6093L48.9045 10.1064C49.0033 10.0497 49.1204 10.0342 49.2305 10.0634C49.3406 10.0926 49.4347 10.1642 49.4923 10.2624C49.5431 10.3644 49.5515 10.4823 49.5158 10.5905C49.48 10.6986 49.403 10.7883 49.3014 10.8399L47.9134 11.5904L47.6903 11.7093C47.639 11.5706 47.5407 11.4543 47.4124 11.3807C47.2842 11.3071 47.1341 11.281 46.9885 11.3067L44.4608 11.789C44.3873 11.8066 44.3162 11.8332 44.2491 11.8681C44.0617 11.6993 43.9049 11.4993 43.7857 11.277C43.6155 10.9626 43.5238 10.6117 43.5183 10.2542C43.5127 9.89668 43.5936 9.54313 43.754 9.22357C43.7557 9.22072 43.7557 9.21786 43.7557 9.215L44.8151 6.85415C44.8591 6.74909 44.9428 6.6657 45.0481 6.62218C45.1533 6.57866 45.2715 6.57854 45.3768 6.62186C45.4793 6.67207 45.5577 6.76068 45.5952 6.86844C45.6327 6.97619 45.6261 7.09438 45.5768 7.19729L45.234 7.96072L45.7883 7.66101C45.7924 7.65874 45.7965 7.65734 45.8007 7.65595C45.8054 7.65435 45.8101 7.65276 45.8148 7.64986C45.8187 7.64752 45.8222 7.64491 45.8257 7.64232C45.8304 7.6389 45.8351 7.63548 45.8403 7.63272L48.0843 6.41901C48.183 6.36219 48.3001 6.34673 48.4102 6.37601C48.5203 6.4053 48.6143 6.47694 48.6717 6.57529C48.7225 6.67721 48.7309 6.79507 48.6952 6.90318C48.6594 7.0113 48.5824 7.10089 48.4808 7.15243L46.0034 8.49215C45.9622 8.51463 45.9315 8.55253 45.9181 8.59755C45.9047 8.64258 45.9097 8.69107 45.932 8.73243L45.9428 8.75301C45.9653 8.79426 46.0032 8.82492 46.0482 8.8383C46.0933 8.85169 46.1418 8.84671 46.1831 8.82444L49.1145 7.23901C49.2132 7.18224 49.3304 7.16678 49.4404 7.196C49.5504 7.22523 49.6445 7.29676 49.702 7.39501C49.7528 7.49692 49.7612 7.61479 49.7255 7.7229C49.6897 7.83102 49.6127 7.92061 49.5111 7.97215ZM46.1483 13.897L49.1357 15.3644C49.239 15.4119 49.3197 15.4982 49.3595 15.6047C49.3994 15.7112 49.3956 15.8291 49.3488 15.9327C49.2953 16.033 49.2042 16.1081 49.0955 16.1416C48.9868 16.1751 48.8693 16.1643 48.7685 16.1116L45.7823 14.6441C45.7402 14.6236 45.6917 14.6205 45.6473 14.6356C45.603 14.6507 45.5665 14.6827 45.5457 14.7247L45.5351 14.7459C45.5146 14.788 45.5117 14.8365 45.5268 14.8808C45.542 14.9251 45.574 14.9617 45.616 14.9824L47.7408 16.0264C47.8442 16.0739 47.9245 16.1604 47.9644 16.2669C48.0043 16.3734 48.0004 16.4913 47.9537 16.595C47.9001 16.6953 47.8091 16.7703 47.7005 16.8037C47.5918 16.8372 47.4744 16.8263 47.3737 16.7736L45.272 15.7413C45.2262 15.7168 45.1726 15.7114 45.1229 15.7263C45.0732 15.7412 45.0313 15.7751 45.0066 15.8207C44.9856 15.8683 44.9843 15.9221 45.003 15.9706C45.0216 16.0191 45.0586 16.0583 45.106 16.0796L46.6811 16.8536C46.7844 16.9011 46.8647 16.9874 46.9046 17.0939C46.9444 17.2003 46.9406 17.3182 46.894 17.4219C46.8405 17.5222 46.7495 17.5973 46.6408 17.6308C46.5322 17.6643 46.4147 17.6535 46.314 17.6007L44.9 16.9059C44.9 16.9059 43.6177 16.265 43.5857 16.2364C43.118 15.9444 42.7753 15.4891 42.6239 14.9589C42.4726 14.4286 42.5234 13.8611 42.7665 13.3662C42.9239 13.0457 43.1563 12.768 43.4439 12.5566C43.7316 12.3452 44.066 12.2063 44.4188 12.1519C44.4203 12.1516 44.4215 12.1509 44.4226 12.1501C44.424 12.1493 44.4254 12.1484 44.4271 12.1484L46.9611 11.6441C47.0161 11.6315 47.073 11.6298 47.1286 11.6391C47.1842 11.6485 47.2374 11.6687 47.2852 11.6987C47.333 11.7286 47.3744 11.7677 47.407 11.8137C47.4397 11.8597 47.4629 11.9117 47.4754 11.9667C47.4938 12.0791 47.4671 12.1941 47.401 12.2869C47.335 12.3796 47.235 12.4425 47.1228 12.4619L46.3034 12.625L46.8683 12.9024C46.8721 12.9043 46.8754 12.9067 46.8787 12.9092C46.8829 12.9122 46.8871 12.9154 46.8926 12.9176C46.8966 12.9192 46.9005 12.9206 46.9045 12.9219C46.9101 12.9239 46.9156 12.9258 46.9211 12.9284L49.2068 14.0519C49.3101 14.0994 49.3904 14.1857 49.4303 14.2922C49.4702 14.3986 49.4663 14.5165 49.4197 14.6201C49.3661 14.7204 49.275 14.7954 49.1663 14.8289C49.0576 14.8623 48.9401 14.8515 48.8394 14.7987L46.3148 13.5584C46.2727 13.5379 46.2241 13.5348 46.1797 13.55C46.1353 13.5651 46.0988 13.5972 46.078 13.6393L46.0677 13.6604C46.0472 13.7025 46.0442 13.751 46.0593 13.7953C46.0744 13.8396 46.1063 13.8762 46.1483 13.897Z" fill="#1767CE"/>
</svg>

<svg xmlns="http://www.w3.org/2000/svg" viewBox="0 0 56 24"><path fill="#0A2343" d="M0 18.006v-12h3.937v12H0Zm9.294-10.09 2.264 10.09H7.249l-2.704-12h2.417a2.276 2.276 0 0 1 1.512.55c.422.346.71.826.82 1.36Zm2.855 10.09v-12h3.938v12h-3.938Zm6.911-7.436a2.382 2.382 0 0 1-2.4-2.4 2.303 2.303 0 0 1 .322-1.2 2.411 2.411 0 0 1 3.278-.862c.356.21.653.506.862.862.215.363.326.778.321 1.2a2.4 2.4 0 0 1-1.183 2.079 2.302 2.302 0 0 1-1.2.32Zm2.992 7.436v-12h3.937v12h-3.937Zm8.922-5.442c.01.012.095.15.253.414s.364.603.617 1.014a309.436 309.436 0 0 1 1.597 2.62c.247.411.529.876.845 1.394H29.96c-.27-.44-.516-.837-.736-1.192-.22-.355-.453-.738-.7-1.149-.248-.41-.493-.81-.736-1.2-.242-.389-.45-.73-.625-1.022a18.04 18.04 0 0 0-.363-.592 1.75 1.75 0 0 1-.287-.845c.016-.29.11-.57.27-.811.067-.113.191-.313.371-.6s.392-.628.634-1.023c.242-.394.488-.797.736-1.208l.7-1.158.736-1.2h4.326l-3.346 5.46a1.079 1.079 0 0 0-.17.54c.012.202.082.396.203.558Z"/><circle cx="46.143" cy="12.006" r="8.857" fill="#fff"/><path fill="#1767CE" fill-rule="evenodd" d="M52.608 18.47a9.142 9.142 0 1 0-12.93-12.929 9.142 9.142 0 0 0 12.93 12.93ZM49.51 7.973 46.58 9.56l.001-.002a.178.178 0 0 0-.072.24l.012.02a.177.177 0 0 0 .24.072l2.083-1.126a.432.432 0 0 1 .588.156.432.432 0 0 1-.19.577l-2.063 1.116a.196.196 0 0 0-.09.262.197.197 0 0 0 .27.07l.564-.306.052-.029.93-.503a.432.432 0 0 1 .587.156.432.432 0 0 1-.19.578l-1.389.75-.223.12a.631.631 0 0 0-.701-.403l-2.528.482a.926.926 0 0 0-.212.08 2.22 2.22 0 0 1-.495-2.645c.002-.003.002-.006.002-.009l1.06-2.36a.431.431 0 0 1 .56-.233.433.433 0 0 1 .2.575l-.342.764.554-.3a.07.07 0 0 1 .013-.005c.004-.002.01-.003.014-.006l.01-.008a.123.123 0 0 1 .015-.01l2.244-1.213a.431.431 0 0 1 .588.156.432.432 0 0 1-.191.577l-2.478 1.34a.178.178 0 0 0-.071.24l.01.021a.178.178 0 0 0 .241.071l2.931-1.585a.432.432 0 0 1 .588.156.432.432 0 0 1-.19.577Zm-3.363 5.925 2.988 1.467a.43.43 0 0 1 .213.569.43.43 0 0 1-.58.179l-2.987-1.468a.178.178 0 0 0-.236.08l-.01.022a.177.177 0 0 0 .08.236l2.125 1.044a.431.431 0 0 1 .213.569.43.43 0 0 1-.58.179l-2.102-1.033a.196.196 0 0 0-.265.08.196.196 0 0 0 .099.259l1.575.774a.43.43 0 0 1 .213.568.43.43 0 0 1-.58.179l-1.414-.695s-1.282-.641-1.314-.67a2.227 2.227 0 0 1-.142-3.68 2.217 2.217 0 0 1 .979-.406l.004-.002 2.534-.504a.431.431 0 0 1 .514.323.432.432 0 0 1-.352.495l-.82.163.565.277a.066.066 0 0 1 .01.007l.015.009a.19.19 0 0 0 .011.004l.017.006 2.286 1.124a.43.43 0 0 1 .213.568.431.431 0 0 1-.58.179l-2.525-1.24a.177.177 0 0 0-.237.08l-.01.021a.177.177 0 0 0 .08.237Z" clip-rule="evenodd"/></svg>
